X: 9937
T: Devanny's Goat
R: reel
M: 4/4
K: Dmajor
|:DFAB AFAB|d2 fe dBAF|DFAF BFAF|E3 D EGFE|
DFAB AFAB|defe dBAf|efdB AF F2|AFEG FD D2:|
|:faab afdf|a2 fd edBd|ABde fd d2|edfd edBd|
ABde fddf|(3efg fd edBd|A2 dB AF F2|AFEG FD D2:|

